X:142
T:Humours of Ennistymon, The
R:jig
H:See also Coppers and Brass, #31, The Queen of the Rushes, #6
Z:id:hn-jig-142
M:6/8
K:G
A|~B3 GBd|cBc ABc|~B3 GBd|cAG FGA|~B3 GBd|cBc ABc|ded cAF|AGF G2:|
|:e|~f3 fed|cAG FGA|dgg gfg|afd d2e|~f3 fed|cAG FGA|~B3 cAF|AGF G2:|
|:d|gdB gdB|ecA ecA|~B3 GBd|cAG FGA|1 gdB gdB|ecA ecA|
~B3 GBd|cAF G2:|2 ~B3 GBd|cBc ABc|ded cAF|AGF G2||

